X: 2
T: The Maid In The Cherry Tree
R: reel
M: 4/4
L: 1/8
K: Ador
gfa|eA~A2 eABA|GBde dBGB|eA~A2 eABA|GBdB BAfg|(3ege dg e^cdB|GABG dGBd|cBAc ~B2ge|1dBGB A2:|2dBGB BAAB|:cdef gc~c2|gceg dBGB|cdef gceg|dBGB BAAB|cGEG ~g3e|dedc BGBd|cBAc ~B2ge|1dBGB BAAB:|1dBGB A2|


Tune 5195	Setting 22043

